!!!COM: Anon.
!!!LAR: Arban, Jean-Baptiste
!!!OTL: Dutch Air
!!!OPR: The Art of Phrasing: 150 Classic and Popular Melodies
!!!ONM: No. 010
!!!OMD: Maestoso
**kern	**dynam
*ITromp	*
*ITrd1c2	*
*clefG2	*
*B-:	*
*k[b-e-]	*
*M4/4	*
*met(c)	*
4f	f
=1	=1
4b-	.
4b-	.
(4dd	.
4cc)	.
=2	=2
(4.b-	.
16aL	.
16g)J	.
4f,	.
4b-	.
=3	=3
(4a	.
4b-)	.
4ee-	.
4dd	.
=4	=4
(4dd	.
2cc^),	.
4f	.
=5	=5
4b-	.
4b-	.
(4dd	.
4cc)	.
=6	=6
(4.b-	.
8a)	.
4g,	.
*F:	*
(8aL	.
8b-)J	.
=7	=7
(8ccL	.
8dd)	.
8ee	.
8ffJ	.
(4f	.
8aL	.
8g)J	.
=8	=8
2f	.
4r	.
==	==
*B-:	*
4f	.
=9	=9
(4.ee-	.
8dd)	.
4cc	.
4cc	.
=10	=10
(4.dd^	.
8cc)	.
4b-,	.
(8b-L	.
8dd)J	.
=11	=11
4ff^	.
4ff^	.
4dd^	.
4b-^	.
=12	=12
(4dd^	.
4cc)	.
4r	.
4f	.
=13	=13
4b-	.
4b-	.
(8ddL	.
8cc)	.
8b-	.
8aJ	.
=14	=14
4g	.
4g	.
(4.ee-	>
8cc)	]
=15	=15
4b-	.
4b-	.
(8aL	.
8b-	.
8cc	.
8a)J	.
=16	=16
2b-,	.
2cc	.
=17	=17
4dd	.
8b-L	.
8ddJ	.
4ff	.
4a	.
=18	=18
4b-	.
4dd	.
4b-	.
==|!	==|!
*-	*-
!!!OCL: Edwin Franko Goldman
!!!OCL: Walter M. Smith
!!!OCL: Claude Gordon
!!!YOR: Arban's Complete Conservatory Method for Trumpet/Cornet
!!!PPR: Carl Fischer
!!!PPP: New York, NY
!!!PDT: 1893///
!!!reprint: Carl Fischer, 1982: ISBN 0-8258-0385-3
!!!EFL: 10/150
!!!ENC: Hubert Léveillé Gauvin
!!!END: 2018/05/27/